X: 1
T: Padraig O'Keefe's
M: 12/8
L: 1/8
R: slide
K: Amix
FEF A2 F E3 E2 F | G3 GFE F3 F2 A |
d2 e f2 d cBc e2 c |1 BAB c2 B A3 A2 D :|2 BAB c2 B A3 A2 c ||
e3 ece f3 fdc | d3 dcB c3 c2 A |
d2 e f2 d cBc e2 c |1 BAB c2 B A3 A2 c |2 BAB c2 B A3 A2 D |]
